X:1
T:In desen cauden nacht
T:In desen cauden nacht
T:Johan Van der Wielen
C:Johan Van der Wielen
%%score [ 1 2 3 ] { ( 4 6 ) | 5 }
L:1/8
Q:1/4=240
M:2/2
K:F
V:1 treble nm="Soprano"
V:2 treble nm="Alto"
V:3 treble-8 nm="Tenor"
V:4 treble nm="Continuo" snm="Pno."
V:6 treble 
V:5 bass 
V:1
 z2 C2 FFG>G | AFGA B c/B/ A2 | G4 z GGA | F>EEE FGA>D | D/E/F/E/ D2 C4 ::[M:3/2] F4 E4 F4 | %6
w: In de- sen cau- den|nacht is nu een kint ghe- * bo-|ren het is soo|langh ver wacht dit soe- te kint ver-|ko- * * * * ren.|Dit soe- te|
w: Het licht in ee- nen|stal ver- sto- ten van de _ men-|sen noch- tans de|men- schen al soo dick- wils om hem|wen- * * * * schen,|Daer moet dt|
 G6 A2 G4 | A4 F4 B4 | A6 G2 G4 | A4 c4 F4 | F8 E4 | F12 ||[M:2/2] z2 C2 FFG>G |: AFGA B c/B/ A2 | %14
w: kint- jen cleen,|dit soe- te|kint- jen reen|is tot Bet-|leem al-|leen.|In de- sen cau- den|nacht is nu een kint ghe- * bo-|
w: clee- ne kint|nu lig- gen|in de wint|van nie- mand|niet be-|mint.|||
 G4 z GG A/G/ | F>EE>F FGA>D | D/E/F/E/ D2 C4 | z8 |1 z2 C2 FFG>G ::2[M:3/2] F4 E4 F4 || G6 A2 G4 | %21
w: ren, het is soo *|langh ver- wacht dit soe- te kint ver-|ko- * * * * ren.||In de- sen cau- den|Dit soe- te|kint- je cleen,|
w: |||||||
 A4 F4 B4 | A6 G2 G4 | A4 c4 F4 | F8 E4 | F12 | z12 | z12 | z12 | F4 E4 F4 | G6 A2 G4 | A4 F4 B4 | %32
w: dit soe- te|kint- je reen,|is tot Beth-|leem al-|leen.||||dit soe- te|kint- je- cleen|dit soe- te|
w: |||||||||||
 A6 G2 G4 | A4 c4 F4 | F8 E4 | F12 |] %36
w: kint- je reen|is tot Beth-|leem al-|leen.|
w: ||||
V:2
 z8 | z8 | z8 | z8 | z8 ::[M:3/2] z12 | z12 | z12 | z12 | z12 | z12 | z12 ||[M:2/2] z2 C2 DDE>E |: %13
w: ||||||||||||In de- sen cau- den|
 FAEF G A/G/ F2 | E4 z DE F/E/ | D>^CC>E DED=C | C3 =B, C4 | z8 |1 z2 C2 DDE>E ::2 %19
w: nacht is nu een kint ghe- * bo-|ren, het is soo *|langh ver- wacht dit soe te kint ver-|ko- * ren,||in de- sen cau- den|
[M:3/2] A4 G4 F4 || E6 F2 E4 | F4 D4 E4 | F6 G2 E4 | F4 G4 A4 | (B2 A2) (G6 A2) | F12 | z12 | z12 | %28
w: Dit soe- te|kint- je cleen,|dit soe- te|kint- je reen,|is tot Beth-|leem * al- *|leen.|||
 z12 | A4 G4 F4 | E6 F2 E4 | F4 D4 E4 | F6 G2 E4 | F4 G4 A4 | (B2 A2) (G6 A2) | F12 |] %36
w: |dit soe- te|kint- je cleen|dit soe- te|kint- je reen|is tot Beth-|leem * al- *|leen.|
V:3
 z8 | z8 | z8 | z8 | z8 ::[M:3/2] z12 | z12 | z12 | z12 | z12 | z12 | z12 ||[M:2/2] z2 F2 DDC>C |: %13
w: ||||||||||||In de- sen cau- den|
 FFcA GE F/G/A/B/ | c4 z GEC | D>AA>G FEF>G | G4 C4 | z8 |1 z2 F2 DDC>C ::2[M:3/2] F4 C4 F4 || %20
w: nacht is nu een kint ghe- bo- * * *|ren, het is soo|langh ver wacht dit soe- te kint ver-|ko- ren,||in de- sen cau- den|Dit soe- te|
 c6 A2 c4 | A4 B4 G4 | F6 F2 c4 | F4 E4 F4 | B4 c8 | F12 | z12 | z12 | z12 | F4 C4 F4 | c6 A2 c4 | %31
w: kint- je cleen,|dit soe- te|kint- je reen|is tot Beth-|leem al-|leen,||||dit soe- te|kint- je cleen,|
 A4 B4 G4 | F6 c2 c4 | F4 E4 F4 | B4 c8 | A12 |] %36
w: dit soe- te|kint- je reen|is tot Beth-|leem al-|leen.|
V:4
 [FA]2 [Ac]2 [Gc]2 [GB]2 | [FA]2 [EG]2 [DB]2 [FA]2 | [CEG]4 [EG]2 [Gc][Fd] | %3
 [FAd]2 [Ac]2 [FA]2 [Ad]2 | c2 =B2 [EGc]4 ::[M:3/2] [CF]4 [EG]4 [FA]4 | [GB]6 [Ac]2 [GB]4 | %7
 [CF]4 [FA]4 [EB]4 | [Af]2 [ce][Bd] [Ac]2 BA G4 | [Af]2 [ce][Bd] [Gc]2 [GB]2 [FA]2 [CF]2 | %10
 [DF]2 [FA]2 d2 c2 BA G2 | [CFA]12 ||[M:2/2] z2 [FA]2 [FA]2 [Ac]2 |: %13
 [FA]2 [EG][FA] [GB][Ac] [Ac]2 | [EGc]4 z [GB][Gc][Bce] | [Adf]2 [Ae]2 [Ad]2 dc | c3 =B c4 | %17
 [Ec][Fd][Ae][Fd] [Ec][DB][EA][B,CG] |1 [A,CF]4 [A,DF]2 [CEG]2 ::2[M:3/2] [Ac]4 [EGc]4 [FA]4 || %20
 [EG]4 [FA]2 [GB]2 [Ac]2 [Bd]2 | [Fc]4 [DFB]4 [EB]4 | [FA]2 [GB]2 [Ac]4 [EB]4 | [FA]4 [CG]4 [CF]4 | %24
 F8 [EG]4 | [CFA]12 | [Ac]4 [Gc]4 [FA]4 | [DB]4 [CA]4 [EG]4 | [CF]4 [Ac]4 [DFB]4 | %29
 [CFA]4 [EG]4 [FA]4 | [Ec]4 [GB]2 [FA]2 [EG]2 [CF]2 | [Fc]4 [DFB]4 [EB]4 | [CFA]8 [EG]4 | %33
 [FA]4 [Gc]4 [Fc]4 | [Fd]4 c8 | [FAc]12 |] %36
V:5
 F,,2 F,2 E,2 C,2 | F,D,C,A,, G,,C,F,F,, | C,D,E,F, G,2 E,D, | D,2 A,,G,, F,,E,, F,,2 | G,,4 C,4 :: %5
w: |||* * 6 * * *||
[M:3/2] F,4 C,4 F,,4 | C,12 | A,,4 C,4 G,,4 | F,,2 G,,2 A,,2 B,,2 C,4 | F,4 E,4 F,4 | %10
w: ||6 * 6||* 6 *|
 D,4 B,,4 C,4 | F,,12 ||[M:2/2] z2 F,2 D,2 C,2 |: F,2 CA, G,E, F,2 | C4 z G,E,C, | %15
w: * 6 *|||||
 D,>A,A,>G, F,E,F,>G, | G,4 C,4 | CB,A,B, CG,A,E, |1 F,4 D,2 C,2 ::2[M:3/2] F,4 C,4 F,4 || C12 | %21
w: * * * 6 6 * 65 *||||||
 A,4 B,4 G,4 | F,8 C4 | F,4 E,4 F,4 | B,4 C4 C,4 | F,12 | F,4 E,4 F,4 | G,4 F,4 G,4 | A,4 F,4 B,4 | %29
w: 6 * 6||* 6 *||||||
 F,4 C,4 F,4 | C12 | A,4 B,4 G,4 | F,8 C4 | F,4 E,4 F,4 | B,4 C4 C,4 | F,12 |] %36
w: * 6 *||6 * 6||* 6 *|||
V:6
 x8 | x8 | x8 | x8 | [DG]4 x4 ::[M:3/2] x12 | x12 | x12 | x6 F2 E4 | x12 | x4 F4 E4 | x12 || %12
[M:2/2] x8 |: x8 | x8 | x6 A2 | [DG]4 [EG]4 | x8 |1 x8 ::2[M:3/2] x12 || x12 | x12 | x12 | x12 | %24
 D4 C8 | x12 | x12 | x12 | x12 | x12 | x12 | x12 | x12 | x12 | x4 F4 E4 | x12 |] %36

